content/assets/boundary.svg

<svg
  preserveAspectRatio="xMidYMid slice"
  height="50"
  viewBox="0 0 700 50"
  fill="none"
  xmlns="http://www.w3.org/2000/svg"
>
  <path
    d="M305 20L269 36L206 0H0V50H700V0H494L431 36L395 20L350 49L305 20Z"
    fill="black"
    fill-opacity="0.7"
  />
  <path
    d="
      M0 0.5
      H206
      L269 36.5
      L305 20.5
      L350 49.5
      L395 20.5
      L431 36.5
      L494 0.5
      H700
    "
    stroke="url(#boundary_fill)"
  />
  <defs>
    <linearGradient
      id="boundary_fill"
      x1="0"
      y1="0.5"
      x2="700"
      y2="0.5"
      gradientUnits="userSpaceOnUse"
    >
      <stop offset="0.2" stopColor="#00FFFF" />
      <stop offset="0.5" stopColor="#FF00FF" />
      <stop offset="0.8" stopColor="#FFFF00" />
    </linearGradient>
  </defs>
</svg>

<svg fill="none" height="50" preserveAspectRatio="xMidYMid slice" viewBox="0 0 700 50" xmlns="http://www.w3.org/2000/svg" xmlns:xlink="http://www.w3.org/1999/xlink"><linearGradient id="a" gradientUnits="userSpaceOnUse" x1="0" x2="700" y1=".5" y2=".5"><stop offset=".2"/><stop offset=".5"/><stop offset=".8"/></linearGradient><path d="m305 20-36 16-63-36h-206v50h700v-50h-206l-63 36-36-16-45 29z" fill="#000" fill-opacity=".7"/><path d="m0 .5h206l63 36 36-16 45 29 45-29 36 16 63-36h206" stroke="url(#a)"/></svg>
